X:0
T:Wedding on the Hill
C:Copyright 2008 Bonnie Epstein
K:G
L:1/8
M:3/4
Bc|:"G"d3B Bc | "D"d4 Bc | "Em"d2g3e | "Bm"dcB4 | 
"C"c2d2e2 | "G"d2c2B2 | "A"A4 A2 | "D"ABc2Bc | 
"G"d3B Bc | "D"d4 Bc | "Em"d2g3e | "Bm"dcB4 | 
"C"cd ed cB | "D"A4GF | "G"(G6 |1 G4)Bc :|2G4) !fine! GF|
"Em"E4E2 | E3FG2 | "D"FE(D4 | D4)GF | 
"Em"E4E2 | E3FG2 | "D"F4F2 | F4GF | 
"Em"E4E2 | E3FG2 | "D"FE(D4 | D4)D2 | 
"C"E4E2 | "D"+<(+ F4F2 | "Em"G4G2  +<)+ | "D"A4 Bc !D.C.!:| 